X:1
T:Resolution
T:C Major                    Jacob French, 1789
T:Transcribed from  The New American Melody, 1789.
T:Isaac Watts, 1707 (Hymn 62, Book 1)                      86. 86. (C. M.)
%%score [ 1 2 3 4 ]
L:1/8
Q:1/4=120
M:3/2
K:C
V:1 treble nm="Voice"
V:2 treble nm="Voice"
V:3 treble-8 nm="Tenor"
V:4 bass nm="Bass"
V:1
 G4 | (c3 d e4) d4 | (c4 d4) g4 | f8 d4 | e8 B4 | (c4 d4) e4 | d4 d8 | d8 c4 | (e4 f2 e2) d4 | %9
 (e4 f2 ef) g4 | (edcB A4) (B2 c2) | d8 d4 | (g3 f e4) d4 | c8 g4 |[M:2/2] e6 z2 |: z8 | z8 | %17
 z4 z2"_1. Ten   thousand  thousand are their tongues,  But   all   their  joys  are   one.                    Ten    thousand   thousand  are their tongues, But all their joys are one.\n2. Con – spire   to   lift     thy     glories  high,   And   speak thine endless praise.                 Con – spire  to    lift    thy    glories high, And speak thine endless praise." cd | %18
 e2 ed cd ed | c2 c2 c2 c2 | f3 e de f2 | e4 z2 ef | g2 gf ef gf | e2 c2 d2 cd | e2 d2 c2 d2 |1 %25
 e6 z2 :|2 e8 |] %27
V:2
"_1.  Come,  let          us    join   our   cheerful   songs  With  angels  round  the throne;  Ten  thou  –  sand     thou   –   sand    are              their  tongues, But   all             their   joys       are          one.\n2.  Let        all         that  dwell  a – bove    the   sky,   And   air,      and earth, and seas,  Con – spire       to       lift              thy      glo        –          ries   high,  And  speak    thine    end   –  less       praise." C4 | %1
 (E3 F G4) G4 | (G4 A4) B4 | A8 G4 | G8 G4 | G8 G4 | ^F4 F8 | G8 E4 | (G4 A4) G4 | (G4 A2 c2) B4 | %10
 (A2 G2 A4) (G2 E2) | F8 G4 | (E2 F2 G2 A2) G4 | (G4 A4) G4 |[M:2/2] G6 z2 |: z8 | %16
 z4 z2"_1.  Ten  thousand  thousand  are their tongues,  But  all  their  joys   are     one.                    Ten  thousand  thousand  are  their tongues,  But  all  their  joys  are   one,  their joys are one.\n2. Con – spire  to   lift     thy    glories     high,    And  speak  thine  endless  praise.               Con – spire  to  lift    thy    glories  high,  And speak thine endless praise, thine endless praise." EF | %17
 G2 G2 G2 G2 | G2 G2 G2 G2 | A3 B cB AG | A4 z2 A2 | G2 A2 G2 G2 | c2 c2 c2 c2 | G2 A2 GA GF | %24
 E2 A2 G2 G2 |1 G6 z2 :|2 G8 |] %27
V:3
 G4 | (G4 c4) d4 | (e4 f4) e4 | (d4 c4) B4 | c8 d4 | (e4 d4) (G2 c2) | B4 A8 | G8 G4 | %8
 (c3 d c4) B4 | c8 d4 | (e4 f2 e2) (d2 c2) | A8 G4 | c8 d4 | (e4 f2 e2) d4 |[M:2/2] c6 z2 |: %15
 z4 z2"_1. Ten\n2. Con–" G2 | %16
"_1.  thousand thousand are their tongues, But  all  their  joys  are    one.                    But      all   their  joys  are   one.                     But    all    their     joys   are    one.                    But   all  their  joys  are  one.\n2. –spire  to  lift   thy    glories  high,  And   speak  thine  endless  praise.                  And speak thine endless praise.                   And speak thine  endless  praise.                  And speak thine endless praise." c2 c2 c2 A2 | %17
 d2 d2 d2 G2 | c3 d ed cB | A4 z2 c2 | d3 e fe dc | B4 z2 cd | e2 f2 gf ed | c4 z2 G2 | %24
 c2 f2 e2 d2 |1 c6 z2 :|2 c8 |] %27
V:4
 C,4 | C,8 G,4 | (E,4 D,4) C,4 | (D,3 E, F,4) G,4 | C,8 G,4 | (E,3 F, G,4) (E,2 C,2) | D,4 D,8 | %7
 G,,8 C,4 | (C,4 F,4) G,4 | (C,4 F,2 A,2) G,4 | (C4 D2 C2) (B,2 A,2) | D,8 G,4 | %12
 (C,3 D, E,2 F,2) G,4 | (C4 F,4) G,4 |[M:2/2] C,6 C,2 |: %15
"_1.  Ten thousand thousand\n2.  Conspire  to  lift  thy" G,2 G,2 G,2 E,2 | %16
"_1.  are their tongues, But all  their  joys  are   one.                        But    all    their  joys  are    one.                    But    all    their  joys  are    one.                            But   all   their  joys  are   one, their joys are one.    Ten\n2.  glories  high,   And  speak thine endless praise.                      And speak thine endless praise.                 And speak thine endless praise.                 And speak thine endless praise, thine endless praise.   Con–""________________________________________________________\nEdited by B. C. Johnston, 2019.\n   1.  Lower \"choosing notes\" eliminated throughout.\n   2. These words substituted for original ones:  Watts Hymn 29 of Book 1." A,2 A,2 A,B, C2 | %17
 G,3 A, G,F, E,D, | C,4 z2 C,2 | F,3 G, A,G, F,E, | D,4 z2 D,2 | E,2 F,2 G,F, E,D, | C,4 z2 C,D, | %23
 E,2 F,2 G,F, E,D, | C,2 D,2 E,F, G,2 |1 C,6 C,2 :|2 C,8 |] %27

